packages/sources/assets/src/assets/bvr.svg

<svg width="58" height="40" viewBox="0 0 58 40" fill="none" xmlns="http://www.w3.org/2000/svg">
<rect x="0.5" y="0.5" width="57" height="39" rx="3.5" fill="#FAD6D7" stroke="#F3F3F3"/>
<path fill-rule="evenodd" clip-rule="evenodd" d="M24.192 17.8H38.304V18.8H24.192V17.8ZM24.192 20.8H53.76V21.8H24.192V20.8ZM53.76 23.8H24.192V24.8H53.76V23.8Z" fill="#D17272"/>
<path fill-rule="evenodd" clip-rule="evenodd" d="M21.504 2.34399H22.504V2.99999H30.912V3.99999H22.504V4.99999H34.272V5.99999H22.504V6.99999H28.896V7.99999H22.504V8.99999H28.896V9.99999H22.504V11.752H44.352V9.99999H43.504V8.99999H44.352V6.99999H43.504V5.99999H44.352V3.99999H43.504V2.99999H44.352V2.34399H45.352V2.99999H57.616V3.99999H45.352V5.99999H52.24V6.99999H45.352V8.99999H49.552V9.99999H45.352V11.752H55.776V12.752H22.504V17H38.504V18H22.504V30H24.504V31H22.504V32.584H21.504V31V30V18V17V12.752V11.752V9.99999V8.99999V7.99999V6.99999V5.99999V4.99999V3.99999V2.99999V2.34399Z" fill="#666666"/>
<rect x="2" y="21" width="17" height="3" fill="white"/>
<path fill-rule="evenodd" clip-rule="evenodd" d="M55 7C55 4.79086 53.2091 3 51 3C48.7909 3 47 4.79086 47 7C47 9.20914 48.7909 11 51 11C53.2091 11 55 9.20914 55 7ZM47.6667 7C47.6667 5.15905 49.1591 3.66667 51 3.66667C52.8409 3.66667 54.3333 5.15905 54.3333 7C54.3333 8.84095 52.8409 10.3333 51 10.3333C49.1591 10.3333 47.6667 8.84095 47.6667 7Z" fill="#D17272"/>
<path d="M1 34H57V36C57 37.6569 55.6569 39 54 39H4C2.34314 39 1 37.6569 1 36V34Z" fill="white"/>
</svg>

<svg width="58" height="40" fill="none" xmlns="http://www.w3.org/2000/svg"><rect x=".5" y=".5" width="57" height="39" rx="3.5" fill="#FAD6D7" stroke="#F3F3F3"/><path fill-rule="evenodd" clip-rule="evenodd" d="M24.192 17.8h14.112v1H24.192v-1Zm0 3H53.76v1H24.192v-1Zm29.568 3H24.192v1H53.76v-1Z" fill="#D17272"/><path fill-rule="evenodd" clip-rule="evenodd" d="M21.504 2.344h1V3h8.408v1h-8.408v1h11.768v1H22.504v1h6.392v1h-6.392v1h6.392v1h-6.392v1.752h21.848V10h-.848V9h.848V7h-.848V6h.848V4h-.848V3h.848v-.656h1V3h12.264v1H45.352v2h6.888v1h-6.888v2h4.2v1h-4.2v1.752h10.424v1H22.504V17h16v1h-16v12h2v1h-2v1.584h-1V2.344Z" fill="#666"/><path fill="#fff" d="M2 21h17v3H2z"/><path fill-rule="evenodd" clip-rule="evenodd" d="M55 7a4 4 0 1 0-8 0 4 4 0 0 0 8 0Zm-7.333 0a3.333 3.333 0 1 1 6.666 0 3.333 3.333 0 0 1-6.666 0Z" fill="#D17272"/><path d="M1 34h56v2a3 3 0 0 1-3 3H4a3 3 0 0 1-3-3v-2Z" fill="#fff"/></svg>
